assets/icons/24px/outline/graphics-and-design-24px.svg

<svg width="24" height="24" viewBox="0 0 24 24" fill="none" xmlns="http://www.w3.org/2000/svg">
<path d="M21.6916 12.7227C22.082 12.3322 22.0889 11.6922 21.7069 11.2931C21.325 10.894 20.6989 10.8869 20.3084 11.2774L21.6916 12.7227ZM14.8084 16.7773C14.418 17.1678 14.4111 17.8078 14.7931 18.2069C15.175 18.606 15.8011 18.6131 16.1916 18.2227L14.8084 16.7773ZM16.1916 18.2227L21.6916 12.7227L20.3084 11.2774L14.8084 16.7773L16.1916 18.2227Z" fill="white"/>
<path d="M14 19.9504C14 20.7424 12.5457 21.2176 10.1218 20.9008C9.59031 20.8313 10.9628 20.584 11.0913 19.9504C11.2198 19.3168 11.5001 19 12.3033 19C13.1065 19 14 19.4255 14 19.9504Z" fill="white" stroke="white"/>
<path d="M7.5 18C8.05228 18 8.5 17.5523 8.5 17C8.5 16.4477 8.05228 16 7.5 16V18ZM16 9C16 9.55228 16.4477 10 17 10C17.5523 10 18 9.55228 18 9H16ZM3.58579 16.4142L4.29289 15.7071L3.58579 16.4142ZM16.4142 4.58579L17.1213 3.87868L16.4142 4.58579ZM7 5H13V3H7V5ZM4 13V8H2V13H4ZM7.5 16H7V18H7.5V16ZM16 8V9H18V8H16ZM2 13C2 13.9145 1.99788 14.701 2.08214 15.3278C2.17027 15.9833 2.36902 16.6117 2.87868 17.1213L4.29289 15.7071C4.21677 15.631 4.12262 15.495 4.06431 15.0613C4.00212 14.5988 4 13.9711 4 13H2ZM7 16C6.02892 16 5.40121 15.9979 4.9387 15.9357C4.50496 15.8774 4.36902 15.7832 4.29289 15.7071L2.87868 17.1213C3.38834 17.631 4.01669 17.8297 4.67221 17.9179C5.29896 18.0021 6.08546 18 7 18V16ZM13 5C13.9711 5 14.5988 5.00212 15.0613 5.06431C15.495 5.12262 15.631 5.21677 15.7071 5.29289L17.1213 3.87868C16.6117 3.36902 15.9833 3.17027 15.3278 3.08214C14.701 2.99788 13.9145 3 13 3V5ZM18 8C18 7.08546 18.0021 6.29896 17.9179 5.67221C17.8297 5.01669 17.631 4.38834 17.1213 3.87868L15.7071 5.29289C15.7832 5.36902 15.8774 5.50496 15.9357 5.9387C15.9979 6.40121 16 7.02892 16 8H18ZM7 3C6.08546 3 5.29896 2.99788 4.67221 3.08214C4.01669 3.17027 3.38834 3.36902 2.87868 3.87868L4.29289 5.29289C4.36902 5.21677 4.50496 5.12262 4.9387 5.06431C5.40121 5.00212 6.02892 5 7 5V3ZM4 8C4 7.02892 4.00212 6.40121 4.06431 5.9387C4.12262 5.50496 4.21677 5.36902 4.29289 5.29289L2.87868 3.87868C2.36902 4.38834 2.17027 5.01669 2.08214 5.67221C1.99788 6.29896 2 7.08546 2 8H4Z" fill="white"/>
<path d="M10 13L7.96364 11.1578C7.27217 10.5322 6.92644 10.2194 6.4985 10.2195C6.07057 10.2196 5.72499 10.5325 5.03383 11.1584L3.00002 13" stroke="white" stroke-width="2" stroke-linecap="round" stroke-linejoin="round"/>
<path d="M17 9.00002L14.3297 7.66484C13.6882 7.34412 13.3675 7.18376 13.0316 7.22366C12.6958 7.26357 12.4302 7.49358 11.8992 7.9536L8.37336 11.0079" stroke="white" stroke-width="2" stroke-linecap="round" stroke-linejoin="round"/>
</svg>

<svg width="24" height="24" fill="none" xmlns="http://www.w3.org/2000/svg"><path d="M21.692 12.723c.39-.39.397-1.03.015-1.43a.974.974 0 0 0-1.399-.016l1.384 1.446zm-6.884 4.054c-.39.39-.397 1.03-.015 1.43a.974.974 0 0 0 1.399.016l-1.384-1.446zm1.384 1.446l5.5-5.5-1.384-1.446-5.5 5.5 1.384 1.446z" fill="#fff"/><path d="M14 19.95c0 .792-1.454 1.268-3.878.95-.532-.069.84-.316.97-.95.128-.633.408-.95 1.211-.95.803 0 1.697.425 1.697.95z" fill="#fff" stroke="#fff"/><path d="M7.5 18a1 1 0 1 0 0-2v2zM16 9a1 1 0 1 0 2 0h-2zM3.586 16.414l.707-.707-.707.707zM16.414 4.586l.707-.707-.707.707zM7 5h6V3H7v2zm-3 8V8H2v5h2zm3.5 3H7v2h.5v-2zM16 8v1h2V8h-2zM2 13c0 .915-.002 1.701.082 2.328.088.655.287 1.284.797 1.793l1.414-1.414c-.076-.076-.17-.212-.229-.646C4.002 14.6 4 13.971 4 13H2zm5 3c-.971 0-1.599-.002-2.061-.064-.434-.059-.57-.153-.646-.229l-1.414 1.414c.51.51 1.138.709 1.793.797C5.3 18.002 6.085 18 7 18v-2zm6-11c.971 0 1.599.002 2.061.064.434.059.57.153.646.229l1.414-1.414c-.51-.51-1.138-.709-1.793-.797C14.7 2.998 13.915 3 13 3v2zm5 3c0-.915.002-1.701-.082-2.328-.088-.655-.287-1.284-.797-1.793l-1.414 1.414c.076.076.17.212.229.646C15.998 6.4 16 7.029 16 8h2zM7 3c-.915 0-1.701-.002-2.328.082-.655.088-1.284.287-1.793.797l1.414 1.414c.076-.076.212-.17.646-.229C5.4 5.002 6.029 5 7 5V3zM4 8c0-.971.002-1.599.064-2.061.059-.434.153-.57.229-.646L2.879 3.879c-.51.51-.709 1.138-.797 1.793C1.998 6.3 2 7.085 2 8h2z" fill="#fff"/><path d="M10 13l-2.036-1.842c-.692-.626-1.038-.939-1.466-.938-.427 0-.773.313-1.464.938L3 13m14-4l-2.67-1.335c-.642-.32-.963-.481-1.298-.441-.336.04-.602.27-1.133.73l-3.526 3.054" stroke="#fff" stroke-width="2" stroke-linecap="round" stroke-linejoin="round"/></svg>
